Catalina-light/actions/22/view-calendar-wedding-anniversary.svg

<svg xmlns="http://www.w3.org/2000/svg" viewBox="0 0 22 22">
  <defs id="defs3051">
    <style type="text/css" id="current-color-scheme">
      .ColorScheme-Text {
        color:#4d4d4d
      }
      </style>
  </defs>
 <path 
     style="fill:currentColor;fill-opacity:1;stroke:none"      
	 class="ColorScheme-Text"
        d="M 4 3 C 3.4459836 3 3 3.4459836 3 4 L 3 18 C 3 18.554016 3.4459836 19 4 19 L 18 19 C 18.554016 19 19 18.554016 19 18 L 19 4 C 19 3.4459836 18.554016 3 18 3 L 4 3 z M 7.4824219 6.5449219 L 9.8378906 6.5449219 C 9.9499558 6.5449219 10.053333 6.6009224 10.113281 6.6953125 L 10.558594 7.4023438 C 10.638073 7.5281972 10.623113 7.6919704 10.521484 7.8007812 L 9.2109375 9.2011719 L 8.8964844 9.5390625 C 8.8326538 9.6085441 8.7442096 9.6425781 8.6582031 9.6425781 C 8.5722096 9.6425781 8.4857187 9.6072331 8.421875 9.5390625 L 6.7988281 7.8007812 C 6.6958965 7.6919704 6.6822399 7.5281972 6.7617188 7.4023438 L 7.2070312 6.6953125 C 7.2669661 6.6009224 7.3716727 6.5449219 7.4824219 6.5449219 z M 13.341797 8.0957031 C 14.318996 8.0957031 15.239134 8.4770588 15.929688 9.171875 C 16.620241 9.8666912 17 10.79216 17 11.775391 C 17 12.758621 16.620241 13.682137 15.929688 14.376953 C 15.239134 15.071769 14.318996 15.455078 13.341797 15.455078 C 13.309224 15.455078 13.279317 15.454436 13.248047 15.453125 C 12.412868 15.430838 11.588316 15.111785 10.955078 14.5625 C 10.155091 13.870293 9.6835938 12.834002 9.6835938 11.773438 C 9.6835938 11.159902 9.8325138 10.56998 10.111328 10.042969 C 10.28854 10.193731 10.443278 10.372998 10.568359 10.572266 C 10.672594 10.741381 10.753231 10.920595 10.810547 11.109375 C 10.755824 11.321753 10.726562 11.54597 10.726562 11.775391 C 10.726562 12.493804 11.030912 13.19848 11.550781 13.691406 C 12.031576 14.146327 12.682513 14.40625 13.341797 14.40625 C 14.784142 14.40625 15.958984 13.226639 15.958984 11.775391 C 15.958984 10.324142 14.784142 9.1425781 13.341797 9.1425781 C 12.850592 9.1425781 12.393485 9.2802918 12 9.5175781 C 11.801954 9.221298 11.564626 8.9514345 11.298828 8.7207031 C 11.898177 8.3129902 12.603048 8.0957031 13.341797 8.0957031 z M 6.9609375 8.5117188 L 7.7148438 9.3203125 C 6.737645 9.7018059 6.0429688 10.658441 6.0429688 11.775391 C 6.0429687 13.226639 7.2158577 14.406263 8.6582031 14.40625 C 9.1402879 14.40625 9.5921951 14.276295 9.9804688 14.046875 C 10.117277 14.250076 10.272023 14.442788 10.445312 14.621094 C 10.522185 14.699752 10.600859 14.774911 10.681641 14.845703 C 10.087504 15.242928 9.389798 15.455078 8.6601562 15.455078 C 7.6829575 15.455078 6.7621692 15.072451 6.0703125 14.375 C 5.3797587 13.680184 5 12.756668 5 11.773438 C 5 10.790207 5.3797587 9.8666912 6.0703125 9.171875 C 6.3361106 8.9044363 6.6365075 8.6821454 6.9609375 8.5117188 z M 10.355469 8.5136719 C 10.531365 8.6054401 10.697164 8.7127326 10.853516 8.8320312 C 11.755144 9.5216035 12.31901 10.624355 12.320312 11.775391 C 12.320312 11.897311 12.312495 12.020644 12.300781 12.142578 C 12.253863 12.614529 12.120584 13.068154 11.904297 13.482422 C 11.633287 13.249069 11.416742 12.951486 11.28125 12.617188 L 11.199219 12.414062 C 11.354281 11.787417 11.271017 11.10543 10.96875 10.535156 C 10.687304 10.004212 10.223015 9.5810096 9.671875 9.3476562 C 9.6497252 9.3384794 9.6256655 9.3294893 9.6035156 9.3203125 L 10.355469 8.5136719 z "
     />
</svg>

<svg viewBox="0 0 22 22" xmlns="http://www.w3.org/2000/svg">
<defs>
<style id="current-color-scheme" type="text/css">.ColorScheme-Text {
        color:#363636
      }</style>
</defs>
<path class="ColorScheme-Text" d="m4 3c-0.55402 0-1 0.44598-1 1v14c0 0.55402 0.44598 1 1 1h14c0.55402 0 1-0.44598 1-1v-14c0-0.55402-0.44598-1-1-1h-14zm3.4824 3.5449h2.3555c0.11207 0 0.21544 0.056 0.27539 0.15039l0.44531 0.70703c0.079479 0.12585 0.064519 0.28963-0.03711 0.39844l-1.3105 1.4004-0.31445 0.33789c-0.063831 0.069482-0.15227 0.10352-0.23828 0.10352-0.085994 0-0.17248-0.035345-0.23633-0.10352l-1.623-1.7383c-0.10293-0.10881-0.11659-0.27258-0.037109-0.39844l0.44531-0.70703c0.059935-0.09439 0.16464-0.15039 0.27539-0.15039zm5.8594 1.5508c0.9772 0 1.8973 0.38136 2.5879 1.0762 0.69055 0.69482 1.0703 1.6203 1.0703 2.6035 0 0.98323-0.37976 1.9067-1.0703 2.6016-0.69055 0.69482-1.6107 1.0781-2.5879 1.0781-0.032573 0-0.06248-6.42e-4 -0.09375-0.001953-0.83518-0.022287-1.6597-0.34134-2.293-0.89062-0.79999-0.69221-1.2715-1.7285-1.2715-2.7891 0-0.61354 0.14892-1.2035 0.42773-1.7305 0.17721 0.15076 0.33195 0.33003 0.45703 0.5293 0.10424 0.16912 0.18487 0.34833 0.24219 0.53711-0.054723 0.21238-0.083985 0.4366-0.083985 0.66602 0 0.71841 0.30435 1.4231 0.82422 1.916 0.4808 0.45492 1.1317 0.71484 1.791 0.71484 1.4423 0 2.6172-1.1796 2.6172-2.6309 0-1.4512-1.1748-2.6328-2.6172-2.6328-0.4912 0-0.94831 0.13771-1.3418 0.375-0.19805-0.29628-0.43537-0.56614-0.70117-0.79688 0.59935-0.40771 1.3042-0.625 2.043-0.625zm-6.3809 0.41602 0.75391 0.80859c-0.9772 0.38149-1.6719 1.3381-1.6719 2.4551-1e-7 1.4512 1.1729 2.6309 2.6152 2.6309 0.48208 0 0.93399-0.12996 1.3223-0.35938 0.13681 0.2032 0.29155 0.39591 0.46484 0.57422 0.076873 0.078658 0.15555 0.15382 0.23633 0.22461-0.59414 0.39722-1.2918 0.60938-2.0215 0.60938-0.9772 0-1.898-0.38263-2.5898-1.0801-0.69055-0.69482-1.0703-1.6183-1.0703-2.6016 0-0.98323 0.37976-1.9067 1.0703-2.6016 0.2658-0.26744 0.5662-0.48973 0.89062-0.66016zm3.3945 0.0019531c0.1759 0.091768 0.3417 0.19906 0.49805 0.31836 0.90163 0.68957 1.4655 1.7923 1.4668 2.9434 0 0.12192-0.007817 0.24525-0.019531 0.36719-0.046918 0.47195-0.1802 0.92558-0.39648 1.3398-0.27101-0.23335-0.48756-0.53094-0.62305-0.86523l-0.082031-0.20313c0.15506-0.62664 0.071798-1.3086-0.23047-1.8789-0.28145-0.53094-0.74574-0.95415-1.2969-1.1875-0.02215-0.0091768-0.04621-0.018167-0.068359-0.027344l0.75195-0.80664z" fill="#363636"/>
</svg>
